!!!OTL: Das Schwabentoechterlein Es hat ein Bauer ein Madl ghabt,
!!!ARE: Europa, Osteuropa, UdSSR, Ukraine, Bukowina, Alt - Fratautz
!!!YOR: 4, S. 42
!!    1941 aufgezeichnet
!!!SCT: Q0073B
!!!YEM: Copyright 1995, estate of Helmut Schaffrath.
**kern
*ICvox
*Ivox
*M2/4
*k[f#]
*G:
{8d
=1
8g
8g
16g
16g
8g
=2
8g
8d
8d}
{8d
=3
8e
8e
8g
8e
=4
4e
8d}
{8d
=5
8cc
8cc
8cc
8d
=6
8b
8b
8b}
{8b
=7
8a
8a
16cc
16b
8a
=8
4ee
8dd}
{8d
=9
8cc
8cc
8cc
8d
=10
8b
8b
8b}
{8b
=11
8a
8a
16cc
16b
8a
=12
4a
8g}
==
!!!AGN: Ballade, Weglaufen, Schwangerschaft, Rueckkehr
!!!ONB: ESAC (Essen Associative Code) Database: BALLADE
!!!AMT: simple duple
!!!AIN: vox
!!!EED: Helmut Schaffrath
!!!EEV: 1.0
*-
